icons/line/credit-card.svg

<svg width="24" height="24" viewBox="0 0 24 24" fill="none" xmlns="http://www.w3.org/2000/svg">
<path d="M3 9L3 17C3 18.1046 3.89543 19 5 19H19C20.1046 19 21 18.1046 21 17L21 9M3 9V7C3 5.89543 3.89543 5 5 5L19 5C20.1046 5 21 5.89543 21 7V9M3 9L21 9M7 13L12 13" stroke="currentColor" stroke-width="2" stroke-linecap="round" stroke-linejoin="round"/>
</svg>

<svg width="24" height="24" fill="none" xmlns="http://www.w3.org/2000/svg"><path d="M3 9v8a2 2 0 002 2h14a2 2 0 002-2V9M3 9V7a2 2 0 012-2h14a2 2 0 012 2v2M3 9h18M7 13h5" stroke="currentColor" stroke-width="2" stroke-linecap="round" stroke-linejoin="round"/></svg>
